X:1
T:The Quebec Donkey
L:1/8
Q:1/4=110
M:2/4
K:G
|: z4 | z4 | z4 | z4 |
z4 | z4 | z4 | z4 :|
|:"C"z4 |"C" z4 |"Am" z4 |"Am" z4 |
"C"z4 |"C" z4 |"G" z4"D" |"Em" z4 :|
|:"G" G,>A, B, z |"G" z2 z D |"C" E z D z |"D" C z D z |
"G" G,>A, B, z |"G" z2 z D |"C" E z"D" B, z |"Em" E,2 E2 :|
|:"C" C z"G/B" B, z |"Am7" A, z"Em/G" G, z |"Am7" A, z/2 A,/2 z2 |"Bm7" B, z/2 B,/2 z2 |
"C" C z"G7/B" B, z |"Am7" A, z"G" G, z |"Cmaj7" C z"Bm7" B, z |"Em" E,2 E,2 :|
|:
